X: 41426
T: Twisted Chimney, The
R: reel
M: 4/4
K: Ddorian
|:ADDE FEDC|A,EDC A,CDE|D3E FEFG|AcBA GECE|
D3E FAGF|ECCD E2FE|D3E FEFG|AcBA GECE:|
|:Dddc dcAG|ECCE GCEG|ADDE FAde|cGG2 cedc|
d2cd AGEG|ADDF EA,CE|Ddcd AGEG|ADDC DFEF:|
|:DA,A,2 DFAd|BGG2 EGce|d2dc dcAB|cfef dcAe|
d3c dcAB|cGGc EFGE|DFEF Dfed|cdAc EDDE:|

